X: 469
T: Chief Sitting Bull
C:Traditional
B: jims roots
M:4/4
L:1/8
Q: 1/4=100
K:C
V:1 
%Q:430
|: "C"(3gag ec g2 ec | (3gag ec Bcde | "F"fcAc fagf |
"G7"edcB cdef | "C"(3gag ec g2 ec | (3gag ec Bcde |
"F"fcAc fagf |[1 "G7"edc"C"B c4 :|[2 "G7"edcB "C"c2 G_B||
|: [K:Eb]"Cm"c2 cded c2 | "Bb"Bdfd gdB=A | "Cm"GBcd efga | "Gm"gefd "Cm"ec d2 |
"Cm"c2 cded c2 | "Bb"Bdfd gdB=A | "Cm"GBcd efga | "Gm"gfde "Cm"c4:|
|: "Cm"G2 G_G=Gc c2 | G2 G_G =GECE | G2 G_G =G=Bcd | "Gm"ecd=B "Cm"c4:|
|:[K:G]"G"B2 g2 B2 cB | "A"A2 e2 A2 AB | "D7"cBcd efga | "G"bgaf gfed |
B2 g2 B2 cB | "A"A2 e2 A2 AB | "D7"cBcd efga | "G"bgaf "G7"g4:|
% abcbook-tune_id 6298c2456a79acd239a01127


% abcbook-boost 0
% abcbook-tablature 
% abcbook-transpose 
% abcbook-lastupdated 1654178373699
% abcbook-soundfonts 
% abcbook-repeats 1


